projects/vfh1/img/icons/telegram.svg

<svg viewBox="0 0 26 27" fill="none" xmlns="http://www.w3.org/2000/svg">
<path fill="currentColor" d="M13.0877 26.1163C6.02925 26.1163 0.307617 20.3946 0.307617 13.3362C0.307617 6.27779 6.02925 0.556152 13.0877 0.556152C20.1461 0.556152 25.8677 6.27779 25.8677 13.3362C25.8677 20.3946 20.1461 26.1163 13.0877 26.1163ZM9.11308 14.8315L9.12969 14.8225L10.2416 18.4904C10.3847 18.8879 10.5815 18.9594 10.8205 18.9262C11.0608 18.8943 11.1873 18.7652 11.3445 18.6144L12.8627 17.1472L16.1217 19.5601C16.7172 19.8886 17.1453 19.7186 17.2936 19.008L19.4113 9.01144C19.6451 8.08105 19.2362 7.70787 18.5141 8.00437L6.07526 12.8097C5.22666 13.1496 5.23177 13.625 5.9219 13.8359L9.11308 14.8328V14.8315Z"/>
</svg>

<svg viewBox="0 0 26 27" fill="none" xmlns="http://www.w3.org/2000/svg"><path fill="currentColor" d="M13.088 26.116c-7.059 0-12.78-5.721-12.78-12.78 0-7.058 5.721-12.78 12.78-12.78 7.058 0 12.78 5.722 12.78 12.78 0 7.059-5.722 12.78-12.78 12.78zM9.113 14.832l.017-.01 1.112 3.668c.143.398.34.47.578.436.24-.032.367-.16.524-.312l1.519-1.467 3.259 2.413c.595.329 1.023.159 1.172-.552l2.117-9.997c.234-.93-.175-1.303-.897-1.007L6.075 12.81c-.848.34-.843.815-.153 1.026l3.191.997v-.002z"/></svg>
